X:1
T:Alle Bruder
M:C|
C:From Itzak Perlman "In the Fiddler's House"
R:Reel
Z:Spuds 3/7/03 SG
K:D dorian
z2a2a2a2[|"A7"g2z/f(e4|e2)g2g2g2|"Dm"f2z/e(d4|d2)f2f2f2|"A7"e4A4|
"A7"a2g2f2g2|"Dm"(a8|a)z/a2a2a2|"A7"g2z/f(e4|e2)g2g2g2|"Dm"f2z/e(d4|d2)f2f2f2|
"A7"e4A4|a2g2f2e2|"Dm"d4"A7"A4|"Dm"d6z2||"Dm"A2d2d2e2|f3fe2d2|"Dm"f4 "Gm"g4|
"Dm"f3fe2d2|A2d2d2e2|f3fe2d2|"Dm"f4 "A7"e4|"Dm"(d4"C7"d4)|"F"c2f2f2g2|a3ag2f2|
"F"a4"Bb"_b4|"F"a3ag2f2|c2f2f2g2|a3ag2f2|"F"f4"A7"e4|1"Dm"dza2a2a2||2(d8|d8)|]
